assets/images/icons/next-bl.svg

<svg width="22" height="22" viewBox="0 0 22 22" fill="none" xmlns="http://www.w3.org/2000/svg">
<g clip-path="url(#clip0)">
<path d="M14.8238 18.5009C14.5136 18.8111 14.0254 18.8111 13.7152 18.5009C13.4155 18.2012 13.4155 17.7025 13.7152 17.4035L19.3364 11.7823L0.787225 11.7823C0.354825 11.7823 -3.497e-05 11.4386 -3.50078e-05 11.0062C-3.50456e-05 10.5738 0.354825 10.2189 0.787225 10.2189L19.3364 10.2189L13.7152 4.60823C13.4155 4.29807 13.4155 3.79861 13.7152 3.49964C14.0254 3.18948 14.5136 3.18948 14.8238 3.49964L21.7757 10.4516C22.0754 10.7512 22.0754 11.25 21.7757 11.549L14.8238 18.5009Z" fill="#1D1D1D"/>
</g>
<defs>
<clipPath id="clip0">
<rect x="22" y="22" width="22" height="22" transform="rotate(180 22 22)" fill="white"/>
</clipPath>
</defs>
</svg>

<svg width="22" height="22" fill="none" xmlns="http://www.w3.org/2000/svg"><g clip-path="url(#clip0)"><path d="M14.824 18.5a.777.777 0 01-1.109 0 .78.78 0 010-1.096l5.621-5.622H.787A.78.78 0 010 11.006a.79.79 0 01.787-.787h18.55l-5.622-5.61c-.3-.31-.3-.81 0-1.11a.777.777 0 011.109 0l6.952 6.953c.3.3.3.798 0 1.097l-6.952 6.952z" fill="#1D1D1D"/></g><defs><clipPath id="clip0"><path transform="rotate(180 22 22)" fill="#fff" d="M22 22h22v22H22z"/></clipPath></defs></svg>
